fs/warning_20_regular.svg

<svg viewBox="0 0 20 20" fill="none" xmlns="http://www.w3.org/2000/svg" height="1em" width="1em">
  <path d="M9.5617 3.26158C9.75085 2.91248 10.2519 2.91251 10.441 3.26163L16.9415 15.2626C17.122 15.5957 16.8807 16.0007 16.5019 16.0007H3.49917C3.12027 16.0007 2.87905 15.5957 3.05955 15.2625L9.5617 3.26158ZM11.3203 2.78534C10.7529 1.73798 9.2499 1.7379 8.68246 2.78521L2.18031 14.7861C1.6388 15.7856 2.36245 17.0007 3.49917 17.0007H16.5019C17.6385 17.0007 18.3622 15.7857 17.8208 14.7863L11.3203 2.78534ZM10.4997 7.5C10.4997 7.22386 10.2759 7 9.99972 7C9.72357 7 9.49972 7.22386 9.49972 7.5V11.5C9.49972 11.7761 9.72357 12 9.99972 12C10.2759 12 10.4997 11.7761 10.4997 11.5V7.5ZM10.7497 13.75C10.7497 14.1642 10.4139 14.5 9.99972 14.5C9.5855 14.5 9.24972 14.1642 9.24972 13.75C9.24972 13.3358 9.5855 13 9.99972 13C10.4139 13 10.7497 13.3358 10.7497 13.75Z" fill="#212121"/>
</svg>

<svg viewBox="0 0 20 20" fill="none" xmlns="http://www.w3.org/2000/svg" height="1em" width="1em">
  <path d="M9.562 3.262a.5.5 0 0 1 .879 0l6.5 12a.5.5 0 0 1-.44.739H3.5a.5.5 0 0 1-.44-.739l6.503-12Zm1.758-.477c-.567-1.047-2.07-1.047-2.638 0L2.18 14.786a1.5 1.5 0 0 0 1.32 2.215h13.002a1.5 1.5 0 0 0 1.319-2.215l-6.5-12ZM10.5 7.5a.5.5 0 1 0-1 0v4a.5.5 0 0 0 1 0v-4Zm.25 6.25a.75.75 0 1 1-1.5 0 .75.75 0 0 1 1.5 0Z" fill="#212121"/>
</svg>
